apps/extension/src/@talisman/theme/icons/rocket.svg

<svg width="19" height="19" viewBox="0 0 19 19" fill="none" xmlns="http://www.w3.org/2000/svg">
<path fill-rule="evenodd" clip-rule="evenodd" d="M9.34876 4.30288L9.34878 4.30286C10.1045 3.54716 11.441 3.01509 12.7793 2.82391C13.4375 2.7299 14.0573 2.72448 14.5604 2.79981C15.084 2.87822 15.3882 3.02963 15.5215 3.16294C15.6548 3.29624 15.8062 3.6004 15.8846 4.12399C15.9599 4.62701 15.9545 5.24687 15.8605 5.905C15.6693 7.24332 15.1372 8.57984 14.3815 9.33562L14.3815 9.33562L13.4214 10.2956L9.82144 13.8956L9.1051 14.612L7.78874 13.2956C7.52162 13.0285 7.08854 13.0285 6.82142 13.2956C6.55431 13.5628 6.55431 13.9958 6.82143 14.2629L8.62144 16.063C8.88856 16.3301 9.32164 16.3301 9.58875 16.0629L10.1693 15.4824L11.5186 17.7312C11.6269 17.9118 11.8125 18.0324 12.0215 18.0582C12.2306 18.0839 12.4398 18.0119 12.5888 17.8629L14.9888 15.4629C15.141 15.3107 15.2127 15.0957 15.1822 14.8826L14.6306 11.0211L15.3488 10.3029L15.3488 10.3029C16.393 9.25864 17.0009 7.59513 17.2147 6.09846C17.3232 5.33909 17.3365 4.58271 17.2375 3.92137C17.1415 3.2806 16.9255 2.63227 16.4888 2.1956C16.0521 1.75894 15.4037 1.54287 14.763 1.44691C14.1016 1.34787 13.3453 1.36119 12.5859 1.46967C11.0892 1.68346 9.42572 2.29133 8.38146 3.33555L8.38144 3.33558L7.66327 4.05379L3.80183 3.50215C3.5887 3.47171 3.37367 3.54338 3.22144 3.69562L0.821436 6.09562C0.672501 6.24455 0.600489 6.4538 0.626224 6.66285C0.651959 6.8719 0.772572 7.05743 0.953182 7.1658L3.202 8.51508L2.62146 9.09562C2.49318 9.22389 2.42112 9.39787 2.42112 9.57928C2.42112 9.76068 2.49318 9.93466 2.62146 10.0629L4.42146 11.8629C4.68858 12.1301 5.12166 12.1301 5.38877 11.8629C5.65589 11.5958 5.65589 11.1627 5.38878 10.8956L4.07243 9.57928L4.78877 8.86294L4.78878 8.86294L8.38876 5.26293L8.38877 5.26292L9.34876 4.30288ZM12.2409 16.2762L11.1664 14.4853L13.4214 12.2303L13.7796 14.7375L12.2409 16.2762ZM4.19909 7.518L6.45414 5.26293L3.94693 4.90476L2.40821 6.44347L4.19909 7.518ZM2.98875 13.0629C3.25587 12.7958 3.25587 12.3627 2.98875 12.0956C2.72164 11.8285 2.28855 11.8285 2.02144 12.0956L0.821436 13.2956C0.55432 13.5627 0.55432 13.9958 0.821436 14.2629C1.08855 14.53 1.52163 14.53 1.78875 14.2629L2.98875 13.0629ZM4.78878 14.863C5.0559 14.5958 5.0559 14.1628 4.78879 13.8956C4.52168 13.6285 4.0886 13.6285 3.82148 13.8956L1.42144 16.2956C1.15432 16.5627 1.15432 16.9958 1.42143 17.2629C1.68854 17.53 2.12163 17.5301 2.38874 17.2629L4.78878 14.863ZM6.58876 16.6629C6.85587 16.3958 6.85587 15.9627 6.58876 15.6956C6.32164 15.4285 5.88856 15.4285 5.62145 15.6956L4.42144 16.8956C4.15433 17.1627 4.15433 17.5958 4.42144 17.8629C4.68856 18.1301 5.12164 18.1301 5.38876 17.8629L6.58876 16.6629ZM10.5091 7.11932C10.5091 6.60237 10.9281 6.18331 11.4451 6.18331C11.962 6.18331 12.3811 6.60237 12.3811 7.11932C12.3811 7.63626 11.962 8.05532 11.4451 8.05532C10.9281 8.05532 10.5091 7.63626 10.5091 7.11932ZM11.4451 4.81532C10.1726 4.81532 9.14109 5.84685 9.14109 7.11932C9.14109 8.39178 10.1726 9.42331 11.4451 9.42331C12.7175 9.42331 13.7491 8.39178 13.7491 7.11932C13.7491 5.84685 12.7175 4.81532 11.4451 4.81532Z" fill="currentColor"/>
</svg>

<svg viewBox="0 0 19 19" fill="none" xmlns="http://www.w3.org/2000/svg">
    <path fill-rule="evenodd" clip-rule="evenodd" d="M9.349 4.303c.755-.756 2.092-1.288 3.43-1.48.659-.093 1.278-.099 1.781-.023.524.078.828.23.961.363.134.133.285.437.364.961.075.503.07 1.123-.024 1.781-.192 1.338-.724 2.675-1.48 3.43l-.96.96-3.6 3.6-.716.717-1.316-1.316a.684.684 0 00-.968.967l1.8 1.8c.268.267.7.267.968 0l.58-.58 1.35 2.248a.684.684 0 001.07.132l2.4-2.4a.684.684 0 00.193-.58l-.551-3.862.718-.718C16.393 9.259 17 7.595 17.215 6.098c.108-.759.122-1.515.023-2.177-.096-.64-.313-1.289-.75-1.725-.436-.437-1.084-.653-1.725-.75-.661-.098-1.418-.085-2.177.024-1.497.213-3.16.821-4.205 1.866l-.718.718-3.861-.552a.684.684 0 00-.58.194l-2.4 2.4a.684.684 0 00.131 1.07l2.249 1.35-.58.58a.684.684 0 000 .967l1.8 1.8a.684.684 0 10.967-.967L4.072 9.579l.717-.716 3.6-3.6.96-.96zm2.892 11.973l-1.075-1.79 2.255-2.256.359 2.508-1.54 1.538zM4.199 7.518l2.255-2.255-2.507-.358-1.539 1.538L4.2 7.518zm-1.21 5.545a.684.684 0 10-.968-.967l-1.2 1.2a.684.684 0 10.968.967l1.2-1.2zm1.8 1.8a.684.684 0 00-.968-.967l-2.4 2.4a.684.684 0 10.968.967l2.4-2.4zm1.8 1.8a.684.684 0 00-.968-.967l-1.2 1.2a.684.684 0 10.968.967l1.2-1.2zm3.92-9.544a.936.936 0 111.872 0 .936.936 0 01-1.872 0zm.936-2.304a2.304 2.304 0 100 4.608 2.304 2.304 0 000-4.608z" fill="currentColor"/>
</svg>
